X:1
T:[ID 2-23b]
T:[ID 2-23b]
T:Bezeichnung standardisiert: Tantz Tantz 2.
T:Urheber unbekannt Datum in der hier transkribierten schriftlichen Quelle: 1775
C:Urheber unbekannt
C:Datum in der hier transkribierten schriftlichen Quelle: 1775
L:1/8
M:2/4
K:D
V:1 treble 
V:1
 FFFF | GGGG | EFGE | FdAF | FFFF | GGGG | EFGE | F2 F2 :: dddd | cc c2 | BBBB | AA A2 | GGGG | %13
 FFFe | dGFE | F2 F2 :| %16

